X:78
T:The Duke of Leinster's wife
T:The ladies' pantalettes
R:Reel
O:Ireland
S:Music from Ireland Vol. 3
B:Music from Ireland Vol. 3
B:O'Neill's 1235 -The ladies' pantalettes
Z:Transcription, chords:Mike Long
M:C|
L:1/8
K:G
"G"BdcA G3 B|"F"A=FcF dFcF|"G"BdcA G2 ge|"D"fdcA "G"BG G2:|
|:"G"dggf g2 fg|"D"a2 ag fdde|"D"fgaf "G"gbag|"D"fdcA "G"BG G2:|
